src/16/panel/synergy-panel-ok.svg

<svg xmlns="http://www.w3.org/2000/svg" width="16" height="16" version="1.1">
 <defs>
  <style id="current-color-scheme" type="text/css">
   .ColorScheme-Text { color:#dfdfdf; } .ColorScheme-Highlight { color:#4285f4; }
  </style>
 </defs>
 <path style="opacity:0.3;fill:currentColor" class="ColorScheme-Text" d="M 8,1 C 4.1339875,1 1,4.1339875 1,8 L 2,10 3,8 C 3,5.2385763 5.2385763,3 8,3 L 6,2 Z"/>
 <path style="fill:currentColor" class="ColorScheme-Text" d="M 8 1 L 6 2 L 8 3 A 5 5 0 0 1 13 8 L 14 6 L 15 8 C 15 4.1340068 11.865993 1 8 1 z M 1 8 C 1 11.865993 4.1340068 15 8 15 L 10 14 L 8 13 A 5 5 0 0 1 3 8 L 2 10 L 1 8 z"/>
 <path style="fill:currentColor" class="ColorScheme-Text" d="m 13,9 a 3,3 0 0 0 -3,3 3,3 0 0 0 3,3 3,3 0 0 0 3,-3 3,3 0 0 0 -3,-3 z m 1.476562,0.9941406 a 0.50005,0.50005 0 0 1 0.470704,0.7285154 l -1.5,3 a 0.50005,0.50005 0 0 1 -0.72461,0.191406 l -1.5,-1 a 0.50006225,0.50006225 0 1 1 0.554688,-0.832031 l 1.029297,0.6875 1.246093,-2.492187 a 0.50005,0.50005 0 0 1 0.423828,-0.2832034 z"/>
</svg>

<svg xmlns="http://www.w3.org/2000/svg" width="16" height="16"><defs><style id="current-color-scheme" type="text/css">.ColorScheme-Text{color:#bebebe}</style></defs><path class="ColorScheme-Text" d="M8 1a7 7 0 0 0-7 7l1 2 1-2a5 5 0 0 1 5-5L6 2z" opacity=".3" fill="currentColor"/><path class="ColorScheme-Text" d="M8 1L6 2l2 1a5 5 0 0 1 5 5l1-2 1 2a7 7 0 0 0-7-7zM1 8a7 7 0 0 0 7 7l2-1-2-1a5 5 0 0 1-5-5l-1 2-1-2zM13 9a3 3 0 0 0-3 3 3 3 0 0 0 3 3 3 3 0 0 0 3-3 3 3 0 0 0-3-3zm1.477.994a.5.5 0 0 1 .47.729l-1.5 3a.5.5 0 0 1-.724.191l-1.5-1a.5.5 0 1 1 .554-.832l1.03.688 1.246-2.493a.5.5 0 0 1 .424-.283z" fill="currentColor"/></svg>
